storage/app/icons/phosphoricons/bold/hand-coins-bold.svg

<svg xmlns="http://www.w3.org/2000/svg" fill="currentColor" viewBox="0 0 256 256"><path d="M232.76 137.88a28.39 28.39 0 0 0-24.63-4.88L172 141.26V140a32 32 0 0 0-32-32H89.94a35.76 35.76 0 0 0-25.45 10.54L43 140H20a20 20 0 0 0-20 20v40a20 20 0 0 0 20 20h100a12 12 0 0 0 2.91-.36l64-16a11.4 11.4 0 0 0 1.79-.6l38.82-16.54c.23-.09.45-.19.67-.3a28.61 28.61 0 0 0 4.57-48.32M36 196H24v-32h12Zm181.68-31.39-37.51 16L118.52 196H60v-39l21.46-21.46a11.93 11.93 0 0 1 8.48-3.54H140a8 8 0 0 1 0 16h-28a12 12 0 0 0 0 24h32a12.2 12.2 0 0 0 2.69-.3l67-15.41.47-.12a4.61 4.61 0 0 1 5.82 4.44 4.58 4.58 0 0 1-2.3 4M164 100a40 40 0 0 0 5.18-.34 40 40 0 1 0 29.67-59.32A40 40 0 1 0 164 100m40-36a16 16 0 1 1-16 16 16 16 0 0 1 16-16m-40-20a16 16 0 0 1 12.94 6.58A39.9 39.9 0 0 0 164.2 76h-.2a16 16 0 0 1 0-32"/></svg>

<svg xmlns="http://www.w3.org/2000/svg" viewBox="0 0 256 256" fill="currentColor"><path d="M232.76,137.88A28.39,28.39,0,0,0,208.13,133L172,141.26c0-.42,0-.84,0-1.26a32,32,0,0,0-32-32H89.94a35.76,35.76,0,0,0-25.45,10.54L43,140H20A20,20,0,0,0,0,160v40a20,20,0,0,0,20,20H120a11.89,11.89,0,0,0,2.91-.36l64-16a11.4,11.4,0,0,0,1.79-.6l38.82-16.54c.23-.09.45-.19.67-.3a28.61,28.61,0,0,0,4.57-48.32ZM36,196H24V164H36Zm181.68-31.39-37.51,16L118.52,196H60V157l21.46-21.46A11.93,11.93,0,0,1,89.94,132H140a8,8,0,0,1,0,16H112a12,12,0,0,0,0,24h32a12.19,12.19,0,0,0,2.69-.3l67-15.41.47-.12a4.61,4.61,0,0,1,5.82,4.44A4.58,4.58,0,0,1,217.68,164.61ZM164,100a40.36,40.36,0,0,0,5.18-.34,40,40,0,1,0,29.67-59.32A40,40,0,1,0,164,100Zm40-36a16,16,0,1,1-16,16A16,16,0,0,1,204,64ZM164,44a16,16,0,0,1,12.94,6.58A39.9,39.9,0,0,0,164.2,76H164a16,16,0,0,1,0-32Z"/></svg>
